theme/icons/bold.svg

<svg viewBox="0 0 20 20" fill="none" xmlns="http://www.w3.org/2000/svg">
<path d="M10.2939 17H5.8799C5.2429 17 4.7879 16.862 4.5159 16.585C4.2429 16.308 4.1069 15.867 4.1069 15.262V4.738C4.1069 4.121 4.2469 3.676 4.5259 3.406C4.8049 3.136 5.2559 3 5.8799 3H10.5599C11.2499 3 11.8479 3.041 12.3529 3.124C12.8589 3.207 13.3129 3.366 13.7129 3.602C14.0539 3.799 14.3569 4.049 14.6189 4.352C15.1427 4.95012 15.43 5.71895 15.4269 6.514C15.4269 7.915 14.7049 8.94 13.2599 9.589C15.1569 10.175 16.1069 11.315 16.1069 13.01C16.1155 13.7561 15.9017 14.4878 15.4928 15.1118C15.0839 15.7359 14.4984 16.224 13.8109 16.514C13.3235 16.7042 12.8136 16.8309 12.2939 16.891C11.7229 16.964 11.0559 17 10.2939 17ZM10.0769 10.783H6.6069V14.87H10.1759C12.1529 14.87 13.2599 14.1764 13.2599 12.7944C13.2599 12.0874 12.8849 11.578 12.3729 11.261C11.8609 10.942 11.0959 10.783 10.0769 10.783ZM6.6069 5.13V8.749H9.7129C10.4419 8.749 11.2089 8.633 11.6069 8.5C11.9972 8.37134 12.3231 8.09741 12.5169 7.735C12.6819 7.468 12.7639 7.169 12.7639 6.838C12.7639 6.131 12.5 5.66025 11.9859 5.429C11.3841 5.1583 10.7928 5.13 9.4069 5.13H6.6069Z" fill="black"/>
</svg>

<svg viewBox="0 0 20 20" xmlns="http://www.w3.org/2000/svg"><path d="M10.294 17H5.88c-.637 0-1.092-.138-1.364-.415-.273-.277-.41-.718-.41-1.323V4.738c0-.617.14-1.062.42-1.332.279-.27.73-.406 1.354-.406h4.68c.69 0 1.288.041 1.793.124.506.083.96.242 1.36.478.34.197.644.447.906.75.524.598.811 1.367.808 2.162 0 1.401-.722 2.426-2.167 3.075 1.897.586 2.847 1.726 2.847 3.421a3.756 3.756 0 01-2.296 3.504c-.488.19-.997.317-1.517.377-.571.073-1.238.109-2 .109zm-.217-6.217h-3.47v4.087h3.569c1.977 0 3.084-.694 3.084-2.076 0-.707-.375-1.216-.887-1.533-.512-.319-1.277-.478-2.296-.478zM6.607 5.13v3.619h3.106c.729 0 1.496-.116 1.894-.249a1.6 1.6 0 00.91-.765c.165-.267.247-.566.247-.897 0-.707-.264-1.178-.778-1.409-.602-.27-1.193-.299-2.58-.299h-2.8z"/></svg>
